packages/core/src/svgs/spool.svg

<svg width="24" height="24" viewBox="0 0 24 24" fill="none" xmlns="http://www.w3.org/2000/svg">
<g clip-path="url(#clip0_31_19168)">
<path d="M0 0H24V24H0V0Z" fill="url(#paint0_linear_31_19168)"/>
<path d="M8.36552 13.7142L7.03266 11.2799C6.85378 10.9538 6.8106 10.5703 6.91247 10.2125C7.01435 9.85473 7.25308 9.5515 7.57695 9.3685L15.2398 5.03136C15.3384 4.93279 15.4884 4.67136 15.3384 4.44422L15.6084 4.28564L17.0569 6.82707C17.2027 7.23422 17.2669 8.17707 16.3755 8.68279C15.4884 9.18422 10.9798 11.6699 8.83695 12.8485C8.69124 12.9299 8.43409 13.1828 8.56266 13.5556C8.51981 13.5985 8.40838 13.6842 8.36552 13.7142ZM8.36552 19.7142L7.03266 17.2799C6.85378 16.9538 6.8106 16.5703 6.91247 16.2125C7.01435 15.8547 7.25308 15.5515 7.57695 15.3685L15.2398 11.0314C15.3384 10.9328 15.4884 10.6714 15.3384 10.4442L15.6084 10.2856L17.0569 12.8271C17.2027 13.2342 17.2669 14.1771 16.3755 14.6828C15.4884 15.1842 10.9798 17.6699 8.83695 18.8485C8.69124 18.9299 8.43409 19.1828 8.56266 19.5556C8.51981 19.5985 8.40838 19.6842 8.36552 19.7142Z" fill="#24B4E6"/>
</g>
<defs>
<linearGradient id="paint0_linear_31_19168" x1="12" y1="0" x2="12" y2="24" gradientUnits="userSpaceOnUse">
<stop stop-color="#0D141A"/>
<stop offset="1" stop-color="#37434F"/>
</linearGradient>
<clipPath id="clip0_31_19168">
<rect width="24" height="24" fill="white"/>
</clipPath>
</defs>
</svg>

<svg xmlns="http://www.w3.org/2000/svg" width="24" height="24" fill="none" viewBox="0 0 24 24"><g clip-path="url(#a)"><path fill="url(#b)" d="M0 0h24v24H0z"/><path fill="#24B4E6" d="M8.366 13.714 7.033 11.28a1.414 1.414 0 0 1 .544-1.912l7.663-4.337c.098-.098.248-.36.098-.587l.27-.158 1.449 2.541c.146.407.21 1.35-.681 1.856-.888.501-5.396 2.987-7.54 4.166-.145.08-.402.334-.273.707a2 2 0 0 1-.197.158m0 6L7.033 17.28a1.414 1.414 0 0 1 .544-1.912l7.663-4.337c.098-.098.248-.36.098-.587l.27-.158 1.449 2.541c.146.407.21 1.35-.681 1.856-.888.501-5.396 2.987-7.54 4.166-.145.08-.402.334-.273.707a2 2 0 0 1-.197.158"/></g><defs><linearGradient id="b" x1="12" x2="12" y1="0" y2="24" gradientUnits="userSpaceOnUse"><stop stop-color="#0D141A"/><stop offset="1" stop-color="#37434F"/></linearGradient><clipPath id="a"><path fill="#fff" d="M0 0h24v24H0z"/></clipPath></defs></svg>
